X:1
T:Title
%%score { ( 1 4 ) | ( 2 3 ) }
L:1/8
M:6/8
K:Bb
V:1 treble nm="Grand Piano"
V:4 treble 
V:2 bass 
V:3 bass 
V:1
 z3 z2[Q:1/4=90] [DF] | [DF]2 [DF] [DF]2 [DF] | [EG]2 [DF] [DB]2 [DB] | c2 c cdc |[M:5/8] B3 z2 | %5
[M:1/8] [DF] |[M:3/4] [DF]2 [DF] [DF]2 [DF] | [EG]2 [DF]d c[B,FB] | z2 z c z2 | [A,F]6 | %10
 [DB]2 [DF] [EG]2 [DF] | [DB]2 [DF][EG]- [EG]/[DF]/[DF] | A2 B c2 [Fd] | [=Ec]2 [GB]A- A/G/F | %14
 [DB]2 [DB] [DB]2 F | G6 | z B [Gc] [Fd]2 [Ec] |[M:5/8] [DB]-[DB]- [DB]3 |] %18
V:2
 z3 z2 [B,,B,] | [B,,B,]2 [B,,B,] [B,,B,]2 [B,,B,] | [B,,B,]2 [B,,B,] [B,,F,]2 [B,,F,] | %3
 [F,A,F]2 [F,A,F] [F,F]-[F,B,F][F,A,E] |[M:5/8] z z2 F2 |[M:1/8] [B,,B,] | %6
[M:3/4] [B,,B,]2 [B,,B,] [B,,B,]2 [B,,B,] | [B,,B,]2 [B,,B,][B,,B,] [C,A,]D, | %8
 z B, .C,2[K:treble] B[K:bass]C, | F,6 | [B,,B,]2 [B,,B,] [B,,B,]2 [B,,B,] | %11
 [B,,B,]2 [B,,B,][B,,B,]- [B,,B,]/[B,,B,]/[B,,B,] | [F,CE]2 [F,B,D] [F,A,F]2 [B,,B,] | %13
 [C,G,]2 [C,C][F,CF]- [F,CF]/[F,B,C]/[F,A,C] | [B,,B,]2 [B,,F,] [B,,F,]2 [D,B,] | [E,B,E]6 | %16
 [D,B,]2 [E,B,] [F,B,]2 [F,A,] |[M:5/8] [B,,B,]-[B,,B,]- [B,,B,]3 |] %18
V:3
 x6 | x6 | x6 | z3 .A,3 |[M:5/8] B,,-B,,- B,,3 |[M:1/8] x |[M:3/4] x6 | x6 | %8
 C,2 z .[C,G,]3[K:treble][K:bass] | x6 | x6 | x6 | x6 | x6 | x6 | x6 | x6 |[M:5/8] x5 |] %18
V:4
 x6 | x6 | x6 | x6 |[M:5/8] [B,D]-[B,D]- [B,D]3 |[M:1/8] x |[M:3/4] x6 | z2 z .F3 | %8
 [CFA][EG] [A,FA] E2 [B,EG] | x6 | x6 | x6 | x6 | x6 | x6 | x6 | F2 z2 z2 |[M:5/8] x5 |] %18

